packages/kaspersky-hexa-ui-icons/src/iconsSVGs/48/SafeFull.svg

<svg width="48" height="48" viewBox="0 0 48 48" fill="none" xmlns="http://www.w3.org/2000/svg">
<path fill-rule="evenodd" clip-rule="evenodd" d="M11 19.9999H9V11.9999H11V19.9999ZM15 11.9999H13V19.9999H15V11.9999ZM19 11.9999H17V19.9999H19V11.9999ZM9 35.9999H11V27.9999H9V35.9999ZM13 35.9999H15V27.9999H13V35.9999ZM17 27.9999V35.9999H19V27.9999H17ZM48 5.99992V41.9999C48 43.6568 46.6569 44.9999 45 44.9999H36.65L33.89 47.4599C33.6827 47.6731 33.3973 47.7923 33.1 47.7899C32.9875 47.8093 32.8725 47.8093 32.76 47.7899C32.2895 47.6341 31.9793 47.1851 32 46.6899V45.9999H29C28.1519 45.9954 27.3454 45.6321 26.78 44.9999H3C1.34315 44.9999 0 43.6568 0 41.9999V5.99992C0 4.34307 1.34315 2.99992 3 2.99992H26.78C27.3454 2.36778 28.1519 2.00448 29 1.99992H32V1.30992C32.0222 0.851529 32.3243 0.454092 32.76 0.309923C33.1592 0.179953 33.5976 0.288583 33.89 0.589923L36.65 2.99992H45C46.6569 2.99992 48 4.34307 48 5.99992ZM26 42.9999V40.9999H4V6.99992H26V4.99992H3C2.44772 4.99992 2 5.44764 2 5.99992V41.9999C2 42.5522 2.44772 42.9999 3 42.9999H26ZM26 8.99992H6V22.9999H26V8.99992ZM6 38.9999H26V24.9999H6V38.9999ZM32 43.9999V3.99992H29C28.4477 3.99992 28 4.44764 28 4.99992V42.9999C28 43.5522 28.4477 43.9999 29 43.9999H32ZM34 44.6799L42 37.5499V32.7199C41.3849 32.3648 41.0043 31.7101 41 30.9999V28.9999C41.0043 28.2897 41.3849 27.635 42 27.2799V20.7199C41.3849 20.3648 41.0043 19.7101 41 18.9999V16.9999C41.0043 16.2897 41.3849 15.635 42 15.2799V10.4499L34 3.31992V44.6799ZM46 5.99992C46 5.44764 45.5523 4.99992 45 4.99992H38.89L41.14 6.99992H44V15.2799C44.6151 15.635 44.9957 16.2897 45 16.9999V18.9999C44.9957 19.7101 44.6151 20.3648 44 20.7199V27.2799C44.6151 27.635 44.9957 28.2897 45 28.9999V30.9999C44.9957 31.7101 44.6151 32.3648 44 32.7199V40.9999H41.14L38.89 42.9999H45C45.5523 42.9999 46 42.5522 46 41.9999V5.99992ZM29.29 35.2899C29.1073 35.4816 29.0037 35.7352 29 35.9999C29.0016 36.1306 29.0288 36.2597 29.08 36.3799C29.1306 36.5011 29.2017 36.6127 29.29 36.7099C29.3895 36.7979 29.5005 36.8719 29.62 36.9299C29.8648 37.0229 30.1352 37.0229 30.38 36.9299C30.4995 36.8719 30.6105 36.7979 30.71 36.7099C30.7983 36.6127 30.8694 36.5011 30.92 36.3799C30.976 36.2612 31.0034 36.1311 31 35.9999C31.0024 35.5937 30.7587 35.2263 30.3835 35.0705C30.0083 34.9148 29.5761 35.0015 29.29 35.2899ZM29.29 27.2899C29.1028 27.4786 28.9985 27.7341 29 27.9999C29.0016 28.1306 29.0288 28.2597 29.08 28.3799C29.1709 28.6312 29.3688 28.829 29.62 28.9199C29.862 29.0269 30.138 29.0269 30.38 28.9199C30.5012 28.8693 30.6128 28.7983 30.71 28.7099C30.8972 28.5212 31.0015 28.2657 31 27.9999C31.0024 27.5937 30.7587 27.2263 30.3835 27.0706C30.0083 26.9148 29.5761 27.0015 29.29 27.2899ZM30.71 19.2899C30.5222 19.1006 30.2666 18.9941 30 18.9941C29.7334 18.9941 29.4778 19.1006 29.29 19.2899C29.2017 19.3871 29.1306 19.4987 29.08 19.6199C28.9536 19.9276 28.9884 20.2779 29.1729 20.5546C29.3574 20.8314 29.6674 20.9983 30 20.9999C30.2672 20.9988 30.5229 20.8908 30.71 20.6999C30.8 20.6078 30.8713 20.4991 30.92 20.3799C31.027 20.1379 31.027 19.862 30.92 19.6199C30.8694 19.4987 30.7983 19.3871 30.71 19.2899ZM29.29 11.2899C29.1073 11.4816 29.0037 11.7352 29 11.9999C28.9985 12.2657 29.1028 12.5212 29.29 12.7099C29.3895 12.7979 29.5005 12.8719 29.62 12.9299C29.8648 13.0229 30.1352 13.0229 30.38 12.9299C30.4995 12.8719 30.6105 12.7979 30.71 12.7099C30.7983 12.6127 30.8694 12.5011 30.92 12.3799C30.976 12.2612 31.0034 12.1311 31 11.9999C31.0024 11.5937 30.7587 11.2263 30.3835 11.0706C30.0083 10.9148 29.5761 11.0015 29.29 11.2899Z"  fill="currentColor"/>
</svg>

<svg xmlns="http://www.w3.org/2000/svg" width="48" height="48" fill="none" viewBox="0 0 48 48"><path fill="currentColor" fill-rule="evenodd" d="M11 19.9999H9v-8h2zm4-8h-2v8h2zm4 0h-2v8h2zm-10 24h2v-8H9zm4 0h2v-8h-2zm4-8v8h2v-8zm31-22v36c0 1.6569-1.3431 3-3 3h-8.35l-2.76 2.46a1.09 1.09 0 0 1-.79.33 1 1 0 0 1-.34 0 1.11 1.11 0 0 1-.76-1.1v-.69h-3a3 3 0 0 1-2.22-1H3c-1.6568 0-3-1.3431-3-3v-36c0-1.6568 1.3432-3 3-3h23.78A3 3 0 0 1 29 2h3v-.69a1.11 1.11 0 0 1 .76-1 1.1 1.1 0 0 1 1.13.28L36.65 3H45c1.6569 0 3 1.3432 3 3M26 43v-2H4V7h22V5H3c-.5523 0-1 .4477-1 1v36c0 .5523.4477 1 1 1zm0-34H6v14h20zM6 39h20V25H6zm26 5V4h-3c-.5523 0-1 .4477-1 1v38c0 .5523.4477 1 1 1zm2 .68 8-7.13v-4.83A2 2 0 0 1 41 31v-2a2 2 0 0 1 1-1.72v-6.56A2 2 0 0 1 41 19v-2a2 2 0 0 1 1-1.72v-4.83l-8-7.13zM46 6c0-.5523-.4477-1-1-1h-6.11l2.25 2H44v8.28A2 2 0 0 1 45 17v2a2 2 0 0 1-1 1.72v6.56A2 2 0 0 1 45 29v2a2 2 0 0 1-1 1.72V41h-2.86l-2.25 2H45c.5523 0 1-.4477 1-1zM29.29 35.29A1.05 1.05 0 0 0 29 36a1 1 0 0 0 .08.38c.0506.1212.1217.2328.21.33.0995.088.2105.162.33.22a1.07 1.07 0 0 0 .76 0 1.46 1.46 0 0 0 .33-.22 1.15 1.15 0 0 0 .21-.33A.84.84 0 0 0 31 36a1 1 0 0 0-1.71-.71m0-8A1 1 0 0 0 29 28a1 1 0 0 0 .08.38.9.9 0 0 0 .54.54c.242.107.518.107.76 0a1.15 1.15 0 0 0 .33-.21A1 1 0 0 0 31 28a1.0001 1.0001 0 0 0-1.71-.71m1.42-8a1 1 0 0 0-1.42 0 1.15 1.15 0 0 0-.21.33A1 1 0 0 0 30 21a1 1 0 0 0 .71-.3 1 1 0 0 0 .21-.32.94.94 0 0 0 0-.76 1.15 1.15 0 0 0-.21-.33m-1.42-8A1.05 1.05 0 0 0 29 12a1 1 0 0 0 .29.71c.0995.088.2105.162.33.22a1.07 1.07 0 0 0 .76 0 1.46 1.46 0 0 0 .33-.22 1.15 1.15 0 0 0 .21-.33A.84.84 0 0 0 31 12a1.0001 1.0001 0 0 0-1.71-.71" clip-rule="evenodd"/></svg>
